public/images/logo4.svg

<svg width="240" height="200" fill="none" xmlns="http://www.w3.org/2000/svg"><path d="M117.2 114.288c-1.36 0-2.528-.36-3.504-1.08-.976-.72-1.728-1.728-2.256-3.024-.512-1.312-.768-2.84-.768-4.584 0-1.744.256-3.264.768-4.56.528-1.312 1.28-2.328 2.256-3.048.976-.72 2.144-1.08 3.504-1.08 1.36 0 2.528.36 3.504 1.08.976.72 1.72 1.736 2.232 3.048.528 1.296.792 2.816.792 4.56 0 1.744-.264 3.272-.792 4.584-.512 1.296-1.256 2.304-2.232 3.024-.976.72-2.144 1.08-3.504 1.08Zm0-1.896c1.328 0 2.4-.592 3.216-1.776.832-1.184 1.248-2.856 1.248-5.016s-.416-3.832-1.248-5.016c-.816-1.184-1.888-1.776-3.216-1.776-1.344 0-2.424.592-3.24 1.776-.816 1.184-1.224 2.856-1.224 5.016s.408 3.832 1.224 5.016c.816 1.184 1.896 1.776 3.24 1.776Zm9.207 1.608v-1.728h3.048v-7.848c0-.4-.192-.6-.576-.6h-2.16v-1.728h2.904c.528 0 .952.144 1.272.432.32.288.48.712.48 1.272v.504h.096c.192-.8.552-1.416 1.08-1.848.544-.432 1.296-.648 2.256-.648h2.184v2.136h-2.472c-.976 0-1.728.328-2.256.984-.528.64-.792 1.464-.792 2.472v4.872h3.744V114h-8.808Zm19.358-3.504c-.832 0-1.576-.152-2.232-.456l-.816.984c-.176.24-.224.48-.144.72.096.224.328.336.696.336h3.144c1.424 0 2.576.28 3.456.84.88.544 1.32 1.416 1.32 2.616 0 .72-.184 1.384-.552 1.992-.368.608-.952 1.096-1.752 1.464-.784.384-1.816.576-3.096.576-1.664 0-3-.312-4.008-.936-1.008-.624-1.512-1.576-1.512-2.856 0-.464.112-.896.336-1.296.24-.384.536-.728.888-1.032-.464-.288-.752-.72-.864-1.296-.096-.576.08-1.144.528-1.704l1.08-1.344c-.768-.8-1.152-1.784-1.152-2.952 0-.768.184-1.48.552-2.136a4.133 4.133 0 0 1 1.584-1.608c.704-.4 1.552-.6 2.544-.6.64 0 1.232.096 1.776.288h4.464v1.512l-2.232.072v.168c.416.688.624 1.456.624 2.304 0 .768-.184 1.488-.552 2.16-.352.656-.88 1.184-1.584 1.584-.688.4-1.52.6-2.496.6Zm0-1.728c.784 0 1.424-.232 1.92-.696.512-.464.768-1.104.768-1.92 0-.816-.256-1.448-.768-1.896-.496-.464-1.136-.696-1.92-.696-.8 0-1.456.232-1.968.696-.512.448-.768 1.08-.768 1.896 0 .816.256 1.456.768 1.92.512.464 1.168.696 1.968.696Zm-3.504 6.936c0 .704.328 1.232.984 1.584.656.352 1.504.528 2.544.528 1.008 0 1.824-.2 2.448-.6.64-.4.96-.936.96-1.608 0-.528-.224-.976-.672-1.344-.448-.352-1.272-.528-2.472-.528h-2.712c-.72.528-1.08 1.184-1.08 1.968Zm18.111-1.656c-.496 0-.92-.168-1.272-.504a1.656 1.656 0 0 1-.528-1.248c0-.48.176-.888.528-1.224a1.776 1.776 0 0 1 1.272-.504c.496 0 .92.168 1.272.504.352.336.528.744.528 1.224 0 .496-.176.912-.528 1.248a1.776 1.776 0 0 1-1.272.504Zm14.246-14.064c-.48 0-.879-.16-1.199-.48-.32-.32-.48-.704-.48-1.152 0-.464.16-.848.48-1.152.32-.32.719-.48 1.199-.48a1.6 1.6 0 0 1 1.177.48c.336.304.504.688.504 1.152 0 .448-.168.832-.504 1.152a1.6 1.6 0 0 1-1.177.48ZM169.963 114v-1.728h3.792v-7.848c0-.4-.2-.6-.6-.6h-2.784v-1.728h3.264c1.424 0 2.136.712 2.136 2.136v8.04h3.791V114h-9.599Zm19.19.288c-1.12 0-2.112-.256-2.976-.768-.864-.512-1.544-1.232-2.04-2.16-.496-.944-.744-2.048-.744-3.312 0-1.264.248-2.36.744-3.288.496-.944 1.176-1.672 2.04-2.184.864-.512 1.856-.768 2.976-.768 1.12 0 2.112.256 2.976.768.864.512 1.544 1.24 2.04 2.184.496.928.744 2.024.744 3.288 0 1.264-.248 2.368-.744 3.312-.496.928-1.176 1.648-2.04 2.16-.864.512-1.856.768-2.976.768Zm0-1.92a3.86 3.86 0 0 0 1.872-.456c.56-.304 1-.776 1.32-1.416.336-.64.504-1.456.504-2.448s-.168-1.808-.504-2.448c-.32-.64-.76-1.112-1.32-1.416a3.86 3.86 0 0 0-1.872-.456 3.81 3.81 0 0 0-1.848.456c-.56.304-1.008.776-1.344 1.416-.336.64-.504 1.456-.504 2.448 0 1.488.36 2.584 1.08 3.288.72.688 1.592 1.032 2.616 1.032ZM42 83h51v51H42z" fill="#fff"/><path d="m44.04 83.5 21.083-11h48.838l-21.084 11H44.04Z" stroke="#fff"/></svg>

<svg width="240" height="200" viewBox="0 0 240 200" fill="none" xmlns="http://www.w3.org/2000/svg">
<path d="M117.2 114.288C115.84 114.288 114.672 113.928 113.696 113.208C112.72 112.488 111.968 111.48 111.44 110.184C110.928 108.872 110.672 107.344 110.672 105.6C110.672 103.856 110.928 102.336 111.44 101.04C111.968 99.728 112.72 98.712 113.696 97.992C114.672 97.272 115.84 96.912 117.2 96.912C118.56 96.912 119.728 97.272 120.704 97.992C121.68 98.712 122.424 99.728 122.936 101.04C123.464 102.336 123.728 103.856 123.728 105.6C123.728 107.344 123.464 108.872 122.936 110.184C122.424 111.48 121.68 112.488 120.704 113.208C119.728 113.928 118.56 114.288 117.2 114.288ZM117.2 112.392C118.528 112.392 119.6 111.8 120.416 110.616C121.248 109.432 121.664 107.76 121.664 105.6C121.664 103.44 121.248 101.768 120.416 100.584C119.6 99.4 118.528 98.808 117.2 98.808C115.856 98.808 114.776 99.4 113.96 100.584C113.144 101.768 112.736 103.44 112.736 105.6C112.736 107.76 113.144 109.432 113.96 110.616C114.776 111.8 115.856 112.392 117.2 112.392ZM126.407 114V112.272H129.455V104.424C129.455 104.024 129.263 103.824 128.879 103.824H126.719V102.096H129.623C130.151 102.096 130.575 102.24 130.895 102.528C131.215 102.816 131.375 103.24 131.375 103.8V104.304H131.471C131.663 103.504 132.023 102.888 132.551 102.456C133.095 102.024 133.847 101.808 134.807 101.808H136.991V103.944H134.519C133.543 103.944 132.791 104.272 132.263 104.928C131.735 105.568 131.471 106.392 131.471 107.4V112.272H135.215V114H126.407ZM145.765 110.496C144.933 110.496 144.189 110.344 143.533 110.04L142.717 111.024C142.541 111.264 142.493 111.504 142.573 111.744C142.669 111.968 142.901 112.08 143.269 112.08H146.413C147.837 112.08 148.989 112.36 149.869 112.92C150.749 113.464 151.189 114.336 151.189 115.536C151.189 116.256 151.005 116.92 150.637 117.528C150.269 118.136 149.685 118.624 148.885 118.992C148.101 119.376 147.069 119.568 145.789 119.568C144.125 119.568 142.789 119.256 141.781 118.632C140.773 118.008 140.269 117.056 140.269 115.776C140.269 115.312 140.381 114.88 140.605 114.48C140.845 114.096 141.141 113.752 141.493 113.448C141.029 113.16 140.741 112.728 140.629 112.152C140.533 111.576 140.709 111.008 141.157 110.448L142.237 109.104C141.469 108.304 141.085 107.32 141.085 106.152C141.085 105.384 141.269 104.672 141.637 104.016C142.005 103.344 142.533 102.808 143.221 102.408C143.925 102.008 144.773 101.808 145.765 101.808C146.405 101.808 146.997 101.904 147.541 102.096H152.005V103.608L149.773 103.68V103.848C150.189 104.536 150.397 105.304 150.397 106.152C150.397 106.92 150.213 107.64 149.845 108.312C149.493 108.968 148.965 109.496 148.261 109.896C147.573 110.296 146.741 110.496 145.765 110.496ZM145.765 108.768C146.549 108.768 147.189 108.536 147.685 108.072C148.197 107.608 148.453 106.968 148.453 106.152C148.453 105.336 148.197 104.704 147.685 104.256C147.189 103.792 146.549 103.56 145.765 103.56C144.965 103.56 144.309 103.792 143.797 104.256C143.285 104.704 143.029 105.336 143.029 106.152C143.029 106.968 143.285 107.608 143.797 108.072C144.309 108.536 144.965 108.768 145.765 108.768ZM142.261 115.704C142.261 116.408 142.589 116.936 143.245 117.288C143.901 117.64 144.749 117.816 145.789 117.816C146.797 117.816 147.613 117.616 148.237 117.216C148.877 116.816 149.197 116.28 149.197 115.608C149.197 115.08 148.973 114.632 148.525 114.264C148.077 113.912 147.253 113.736 146.053 113.736H143.341C142.621 114.264 142.261 114.92 142.261 115.704ZM160.372 114.048C159.876 114.048 159.452 113.88 159.1 113.544C158.748 113.208 158.572 112.792 158.572 112.296C158.572 111.816 158.748 111.408 159.1 111.072C159.452 110.736 159.876 110.568 160.372 110.568C160.868 110.568 161.292 110.736 161.644 111.072C161.996 111.408 162.172 111.816 162.172 112.296C162.172 112.792 161.996 113.208 161.644 113.544C161.292 113.88 160.868 114.048 160.372 114.048ZM174.618 99.984C174.138 99.984 173.739 99.824 173.419 99.504C173.099 99.184 172.939 98.8 172.939 98.352C172.939 97.888 173.099 97.504 173.419 97.2C173.739 96.88 174.138 96.72 174.618 96.72C175.083 96.72 175.475 96.88 175.795 97.2C176.131 97.504 176.299 97.888 176.299 98.352C176.299 98.8 176.131 99.184 175.795 99.504C175.475 99.824 175.083 99.984 174.618 99.984ZM169.963 114V112.272H173.755V104.424C173.755 104.024 173.555 103.824 173.155 103.824H170.371V102.096H173.635C175.059 102.096 175.771 102.808 175.771 104.232V112.272H179.562V114H169.963ZM189.153 114.288C188.033 114.288 187.041 114.032 186.177 113.52C185.313 113.008 184.633 112.288 184.137 111.36C183.641 110.416 183.393 109.312 183.393 108.048C183.393 106.784 183.641 105.688 184.137 104.76C184.633 103.816 185.313 103.088 186.177 102.576C187.041 102.064 188.033 101.808 189.153 101.808C190.273 101.808 191.265 102.064 192.129 102.576C192.993 103.088 193.673 103.816 194.169 104.76C194.665 105.688 194.913 106.784 194.913 108.048C194.913 109.312 194.665 110.416 194.169 111.36C193.673 112.288 192.993 113.008 192.129 113.52C191.265 114.032 190.273 114.288 189.153 114.288ZM189.153 112.368C189.841 112.368 190.465 112.216 191.025 111.912C191.585 111.608 192.025 111.136 192.345 110.496C192.681 109.856 192.849 109.04 192.849 108.048C192.849 107.056 192.681 106.24 192.345 105.6C192.025 104.96 191.585 104.488 191.025 104.184C190.465 103.88 189.841 103.728 189.153 103.728C188.481 103.728 187.865 103.88 187.305 104.184C186.745 104.488 186.297 104.96 185.961 105.6C185.625 106.24 185.457 107.056 185.457 108.048C185.457 109.536 185.817 110.632 186.537 111.336C187.257 112.024 188.129 112.368 189.153 112.368Z" fill="white"/>
<rect x="42" y="83" width="51" height="51" fill="white"/>
<path d="M44.0393 83.5L65.1226 72.5H113.961L92.8774 83.5H44.0393Z" stroke="white"/>
</svg>
